!!!COM: Scriabin, Alexander
!!!OTL: Prelude
!!!OPR: 24 Preludes
!!!OPS: 11
!!!ONM: 23
!!!ODT: 1895
!!!AGN: Prelude
**kern	**kern
*staff2	*staff1
*Ipiano	*Ipiano
*clefF4	*clefG2
*k[b-]	*k[b-]
*F:	*F:
*M3/4	*M3/4
=1	=1
*^	*
8.FFL	4rEE	12cL
.	.	12f
.	.	36ddL
16CJk	.	.
.	.	36ee
.	.	36ddJJ
[2f	4A	12ccL
.	.	12ff
.	.	12ddJ
.	4B-	12aaL
.	.	12gg
.	.	12ddJ
*v	*v	*
=2	=2
4A 4f]	12ccL
.	12ff
.	12dddJ
4C	12cccL
.	12ff
.	12ddJ
4r	12aaL
.	12cc
.	12fJ
=3	=3
*^	*
4GG	4rEE	12eL
.	.	12cc
.	.	12aaJ
4e	[2G	12ggL
.	.	12g
.	.	12aJ
4f	.	12eeL
.	.	12a
.	.	12bnJ
=4	=4	=4
4e	4G]	12ddL
.	.	12cc
.	.	12gJ
2C	4rEE	12b-XL
.	.	12f
.	.	12gJ
.	4rEE	12eL
.	.	12f
.	.	12dJ
=5	=5	=5
8.FFL	4rEE	12cL
.	.	12f
.	.	36ddL
16CJk	.	.
.	.	36ee
.	.	36ddJJ
[2f	4A	12ccL
.	.	12ff
.	.	12ddJ
.	4B-	12aaL
.	.	12gg
.	.	12ddJ
*v	*v	*
=6	=6
4A 4f]	12ccL
.	12ff
.	12dddJ
4C	12cccL
.	12ff
.	12ddJ
4r	12aaL
.	12cc
.	12d#XJ
=7	=7
*^	*
4EE	4rEE	12eL
.	.	12a
.	.	12ffJ
4c	[2E	12eeL
.	.	12e
.	.	12fJ
4dn	.	12ccL
.	.	12f
.	.	12g#XJ
=8	=8	=8
4c	4E]	12bnL
.	.	12a
.	.	12fJ
4AA	4rEE	12aL
.	.	12e
.	.	12fJ
4rc	4rEE	12dL
.	.	12e
.	.	12cJ
=9	=9	=9
6AA	4rEE	12r
.	.	12eL
12E	.	12bnJ
*clefG2	*	*
4a	2c	12ccL
.	.	12b
.	.	12ccJ
4g	.	12ddL
.	.	12b
.	.	12aJ
*v	*v	*
=10	=10
8ccL	12dd#XL
.	12a
8cJ	.
.	12gJ
*clefF4	*
8DnL	12eeL
.	12g
8cJ	.
.	12f#XJ
4f#X	12aaL
.	12f#
.	12ddnJ
=11	=11
*^	*
6GG	4rEE	12r
.	.	12dL
12D	.	12aJ
*clefG2	*	*
4g	2B-	12b-L
.	.	12a
.	.	12b-J
4fn	.	12ccL
.	.	12a
.	.	12gJ
*v	*v	*
=12	=12
8b-L	12cc#XL
.	12g
8B-J	.
.	12fJ
*clefF4	*
8CnL	12ddL
.	12f
8B-J	.
.	12eJ
4e	12ggL
.	12e
.	12ccnJ
=13	=13
*^	*
6FF	4rEE	12cL
.	.	12f
12C	.	36ddL
.	.	36ee
.	.	36ddJJ
[2f	4A	12ccL
.	.	12ff
.	.	12ddJ
.	4B-	12aaL
.	.	12gg
.	.	12ddJ
=14	=14	=14
4f]	4A	12ccL
.	.	12ff
.	.	12dddJ
4C	4rEE	12cccL
.	.	12ff
.	.	12ddJ
4rc	4rEE	12aaL
.	.	12cc
.	.	12fJ
*v	*v	*
=15	=15
4AA 4E 4c	12eL
.	12cc
.	36aaL
.	36bb-
.	36aaJJ
4C 4B- 4e	12ggL
.	12cc
.	12ggJ
4D 4A 4f	12ffL
.	12ee
.	12ddJ
=16	=16
4A 4e	12ccL
.	12ee
.	36aaL
.	36bb-
.	36aaJJ
*clefG2	*
4c 4b-	12ggL
.	12cc
.	12ggJ
4f 4a	4ff
*clefF4	*
=17	=17
*^	*
6AA	4rEE	12r
.	.	12eL
12E	.	12bnJ
*clefG2	*	*
4a	2c	12ccL
.	.	12b
.	.	12ccJ
4g	.	12ddL
.	.	12b
.	.	12aJ
*v	*v	*
=18	=18
8ccL	12dd#XL
.	12a
8cJ	.
.	12gJ
*clefF4	*
8DnL	12eeL
.	12g
8cJ	.
.	12f#XJ
4f#X	12aaL
.	12f#
.	12ddnJ
=19	=19
*^	*
6GG	4rEE	12r
.	.	12dL
12D	.	12aJ
*clefG2	*	*
4g	2B-	12b-L
.	.	12a
.	.	12b-J
4fn	.	12ccL
.	.	12a
.	.	12gJ
*v	*v	*
=20	=20
8b-L	12cc#XL
.	12g
8B-J	.
.	12fJ
*clefF4	*
8CnL	12ddL
.	12f
8B-J	.
.	12eJ
4e	12ggL
.	12e
.	12ccnJ
=21	=21
*^	*
6FF	4rEE	12cL
.	.	12f
12C	.	36ddL
.	.	36ee
.	.	36ddJJ
[2f	4A	12ccL
.	.	12ff
.	.	12ddJ
.	4B-	12aaL
.	.	12gg
.	.	12ddJ
=22	=22	=22
4f]	4A	12ccL
.	.	12ff
.	.	12dddJ
4C	4rEE	12cccL
.	.	12ff
.	.	12ddJ
4rc	4rEE	12aaL
.	.	12cc
.	.	12fJ
*v	*v	*
=23	=23
4AA 4E 4c	12eL
.	12cc
.	36aaL
.	36bb-
.	36aaJJ
4C 4B- 4e	12ggL
.	12cc
.	12ggJ
4D 4A 4f	12ffL
.	12ee
.	12ddJ
=24	=24
4A 4e	12ccL
.	12ee
.	36aaL
.	36bb-
.	36aaJJ
*clefG2	*
4c 4b-	12ggL
.	12cc
.	12ggJ
*clefF4	*
4FF 4C	4ff
=25	=25
2AA 2E 2c	12cL
.	12e
.	36b-L
.	36cc
.	36b-JJ
.	12aL
.	12e
.	12aJ
4C 4B-	12gL
.	12f
.	12dJ
=26	=26
8AL	12cL
.	12f
8CJ	.
.	12ccJ
4FF	4ff
4r	4r
==	==
*-	*-
!!!system-decoration: {(*)}
!!!ENC: Bryan Jacob Bell
!!!END: November 2021 to April 2022
!!!PED: Günter Philipp
!!!PTL: Ausgewählte Klavierwerke (Edition Peters)
